storage/app/icons/phosphoricons/fill/jar-fill.svg

<svg xmlns="http://www.w3.org/2000/svg" fill="currentColor" viewBox="0 0 256 256"><path d="M184 48.81V32a16 16 0 0 0-16-16H88a16 16 0 0 0-16 16v16.81A40.05 40.05 0 0 0 40 88v112a40 40 0 0 0 40 40h96a40 40 0 0 0 40-40V88a40.05 40.05 0 0 0-32-39.19M120 48V32h16v16Zm48 0h-16V32h16Zm-64-16v16H88V32Z"/></svg>

<svg xmlns="http://www.w3.org/2000/svg" viewBox="0 0 256 256" fill="currentColor"><path d="M184,48.81V32a16,16,0,0,0-16-16H88A16,16,0,0,0,72,32V48.81A40.05,40.05,0,0,0,40,88V200a40,40,0,0,0,40,40h96a40,40,0,0,0,40-40V88A40.05,40.05,0,0,0,184,48.81ZM120,48V32h16V48Zm48,0H152V32h16ZM104,32V48H88V32Z"/></svg>
